brandFactory_export/2.Regular/Luna_2Regular.svg

<?xml version="1.0" encoding="UTF-8"?>
<svg width="24px" height="24px" viewBox="0 0 24 24" version="1.1" xmlns="http://www.w3.org/2000/svg" xmlns:xlink="http://www.w3.org/1999/xlink">
    <title>2.Regular/Luna_2Regular</title>
    <g id="Symbols" stroke="none" stroke-width="1" fill="none" fill-rule="evenodd">
        <g id="2.Regular/Luna_2Regular" fill="#5CB615" fill-rule="nonzero">
            <path d="M12.0689076,1.48235294 C9.56470588,1.55966387 2.48907563,2.60504202 2.48907563,11.7815126 C2.48907563,21.2470588 10.0487395,22.1109244 12.3680672,22.1478992 C12.6907563,22.1478992 13.0504202,22.1478992 13.3529412,22.1378151 C14.6605042,22.1142857 18.5764706,21.7915966 21.0571429,18.8436975 C19.9277311,19.1563025 18.912605,19.2369748 18.2705882,19.2504202 C18.0352941,19.2605042 17.7260504,19.2605042 17.4403361,19.2605042 C12.9596639,19.189916 8.18655462,16.6184874 8.18655462,9.60336134 C8.18319328,5.14285714 10.0453782,2.75630252 12.0689076,1.48235294 M12.3512605,23.6235294 C6.85882353,23.5294118 1.00336134,20.3731092 1.00336134,11.7815126 C1.00336134,3.2 6.82184874,0.0705882353 12.2672269,0 L13.3226891,0.0100840336 C13.7226891,0.0168067227 14.5092437,0.0571428571 15.4773109,0.235294118 C15.8268908,0.299159664 16.0789916,0.598319328 16.0857143,0.951260504 C16.0890756,1.30420168 15.8470588,1.61008403 15.5008403,1.68403361 C12.8386555,2.25210084 9.66554622,4.08739496 9.66554622,9.60672269 C9.66554622,17.0857143 15.6252101,17.7579832 17.4470588,17.7882353 C17.702521,17.7882353 17.9882353,17.7882353 18.2235294,17.7815126 C19.1411765,17.7613445 20.902521,17.5865546 22.5361345,16.6588235 C22.8151261,16.497479 23.1680672,16.5411765 23.4033613,16.7563025 C23.6420168,16.9714286 23.7092437,17.3176471 23.5747899,17.610084 C21.0470588,23.0722689 15.1344538,23.589916 13.3831933,23.6201681 C13.0806723,23.6235294 12.7042017,23.6235294 12.3512605,23.6235294" id="Luna_2Regular"></path>
        </g>
    </g>
</svg>

<svg width="24" height="24" viewBox="0 0 24 24" xmlns="http://www.w3.org/2000/svg"><path d="M12.069 1.482c-2.504.078-9.58 1.123-9.58 10.3 0 9.465 7.56 10.329 9.88 10.366.322 0 .681 0 .984-.01 1.308-.024 5.223-.346 7.704-3.294a11.53 11.53 0 01-2.786.406c-.236.01-.545.01-.83.01-4.481-.07-9.254-2.642-9.254-9.657-.004-4.46 1.858-6.847 3.882-8.12m.282 22.14C6.86 23.53 1.003 20.374 1.003 11.783 1.003 3.2 6.822.07 12.267 0l1.056.01c.4.007 1.186.047 2.154.225a.739.739 0 01.024 1.449c-2.662.568-5.835 2.403-5.835 7.923 0 7.479 5.96 8.151 7.781 8.181.256 0 .541 0 .777-.006.917-.02 2.679-.195 4.312-1.123a.74.74 0 011.039.951c-2.528 5.462-8.44 5.98-10.192 6.01-.302.004-.679.004-1.032.004" fill="#5CB615" fill-rule="nonzero"/></svg>
